icons/file-music-line.svg

<svg xmlns="http://www.w3.org/2000/svg" width="24" height="24" fill="none"><g clip-path="url(#a)"><g><path fill="#121212" d="M16 8V10H13V14.5C12.9999 15.0159 12.8402 15.5191 12.5428 15.9407C12.2454 16.3622 11.8249 16.6814 11.3389 16.8545C10.8529 17.0276 10.3253 17.0462 9.82839 16.9076C9.33146 16.769 8.88958 16.4801 8.56335 16.0804C8.23711 15.6808 8.0425 15.19 8.0062 14.6754C7.9699 14.1608 8.09368 13.6476 8.36059 13.2061C8.62749 12.7646 9.02443 12.4165 9.49698 12.2095C9.96953 12.0025 10.4945 11.9468 11 12.05V8H15V4H5V20H19V8H16ZM3 2.992C3 2.444 3.447 2 3.999 2H16L21 7V20.993C21.0009 21.1243 20.976 21.2545 20.9266 21.3762C20.8772 21.4979 20.8043 21.6087 20.7121 21.7022C20.6199 21.7957 20.5101 21.8701 20.3892 21.9212C20.2682 21.9723 20.1383 21.9991 20.007 22H3.993C3.73038 21.9982 3.47902 21.8931 3.29322 21.7075C3.10742 21.5219 3.00209 21.2706 3 21.008V2.992Z"/></g></g><defs><clipPath id="a"><rect width="24" height="24" fill="white"/></clipPath></defs></svg>

<svg width="24" height="24" fill="none" xmlns="http://www.w3.org/2000/svg"><g clip-path="url(#a)"><path d="M16 8v2h-3v4.5a2.5 2.5 0 1 1-2-2.45V8h4V4H5v16h14V8h-3ZM3 2.992C3 2.444 3.447 2 3.999 2H16l5 5v13.993A1 1 0 0 1 20.007 22H3.993A1 1 0 0 1 3 21.008V2.992Z" /></g><defs><clipPath id="a"><path fill="#fff" d="M0 0h24v24H0z"/></clipPath></defs></svg>
